X:2161
T:Garrett Barry's Jig
O:england
R:Jig
C:Trad
S:H. J. Clarke
N:Contributed by Phil Sexton
B:The New Approach to Uilleann Piping
M:6/8
L:1/8
K:ADor
|:A|DEF ~G3|{d}AGE c2A|.d.c.A d2e|(3.g.f.e d cAG|
~E3 ~G3|AGE  (3.B.c.d e|dcA GEA|DED {A}D2:|
|:A|.d.c.A d2e|(3.g.f.e d  (3efg e|dcA c2d|egd ecA|
d.A.A d2e|{g}fed e (3.g.f.e|dcA GEA|DED {A}D2:||


